svgs/sharp-solid/transporter-1.svg

<svg xmlns="http://www.w3.org/2000/svg" viewBox="0 0 512 512"><!--! Font Awesome Pro 6.6.0 by @fontawesome - https://fontawesome.com License - https://fontawesome.com/license (Commercial License) Copyright 2024 Fonticons, Inc. --><path d="M256 96a48 48 0 1 0 0-96 48 48 0 1 0 0 96zm-51.1 32l-15.4 0L180 140 103 236 83 261 133 301l20-25 31-38.7 0 50.7 144 0 0-50.7L359 276l20 25L429 261l-20-25L332 140l-9.6-12-15.4 0-102.2 0zM416 512l0-64L96 448l0 64 120 0 80 0 120 0zm48-384l-16 32-32 16 32 16 16 32 16-32 32-16-32-16-16-32zM64 352L48 320 32 352 0 368l32 16 16 32 16-32 32-16L64 352zm112-32l-16 0 0 32 16 0 160 0 16 0 0-32-16 0-160 0zm0 64l-16 0 0 32 16 0 160 0 16 0 0-32-16 0-160 0z"/></svg>

<svg xmlns="http://www.w3.org/2000/svg" viewBox="0 0 512 512"><!--! Font Awesome Pro 6.4.2 by @fontawesome - https://fontawesome.com License - https://fontawesome.com/license (Commercial License) Copyright 2023 Fonticons, Inc. --><path d="M256 96a48 48 0 1 0 0-96 48 48 0 1 0 0 96zm-51.1 32H189.6L180 140 103 236 83 261 133 301l20-25 31-38.7V288H328V237.3L359 276l20 25L429 261l-20-25L332 140l-9.6-12H307.1 204.9zM416 512V448H96v64H216h80H416zm48-384l-16 32-32 16 32 16 16 32 16-32 32-16-32-16-16-32zM64 352L48 320 32 352 0 368l32 16 16 32 16-32 32-16L64 352zm112-32H160v32h16H336h16V320H336 176zm0 64H160v32h16H336h16V384H336 176z"/></svg>
